!!!COM: Charles Gounod
!!!CNT: Francais
!!!TXO: Francais
!!!OTL: "Sur la montagne"
!!!LYR: Barbier
!!!OPR: 
!!!OPS: Op. 
!!!ONM: No.
!!!ENC: Emily Thomas
!!!YOR: CD Sheet Music French Art Songs, The Ultimate Collection
!!!YOR: CD Sheet Music, LLC 2003
!!!ODT: 1872/
!!NB: Vocal melody and text encoded.
**kern	**silbe
=1	=1
*clefG2	*
*k[b-e-]	*
*M4/4	*
*MM[Andante moderato.]	*
1r	.
=2	=2
1r	.
=3	=3
1r	.
=4	=4
1r	.
=5	=5
1r	.
=6	=6
1r	.
=7	=7
1r	.
=8	=8
1r	.
=9	=9
1r	.
=10	=10
{4b-	{Sur
8b-	cet-
8b-	-te
4.b-	croix
8b-	ja-
=11	=11
8.b-	-dis
16g	im-
[4g	-mon-
8g]}	-de,}
8r	.
8r	.
{8g	{Les
=12	=12
2g	pieds
8r	.
8f#	per-
8f#	ce/s
8f#	de
=13	=13
2g}	clous,}
2r	.
=14	=14
{4dd	{Le
8dd	Re/-
8dd	-demp-
4dd	-ter
4dd	di-
=15	=15
8.dd	-vin
16b-	du
4b-	mon-
8b-}	-de,}
8r	.
{4b-	{Je/-
=16	=16
4.b-	-sus
8b-	mou-
4.a	-rut
8a	pour
=17	=17
2b-}	nous!}
2r	.
=18	=18
{4d	{Nul
8dd	ne
8dd	sau-
[4ff	-ra,
8ff]	|
8dd	nul
=19	=19
8cc	ne
8bn	peut
8bn	di-
8bn}	-re}
4r	.
{4bn	{L'hor-
=20	=20
4.cc	-reur
8cc	de
4.a-	son
8a-	tour-
=21	=21
2g}	-ment!..}
2r	.
=22	=22
{4ee-	{Ce
8ee-	que
8ee-	tu
4.gg	sais
8ee-	c'est
=23	=23
8dd	le
8cc#	mart-
8cc#	-y-
8cc#}	-re}
4r	.
{4cc#	{D'un
=24	=24
2dd	Dieu
8r	.
8a	mort
8a	un
8a	t'ai-
=25	=25
2a}	-mant!..}
4r	.
{4dd	{Pour
=26	=26
4.ee-	te
8ee-	sau-
4.ee-	-ver
8ee-	du
=27	=27
8ee-	noir
8dd	a-
8dd	-bi-
8dd}	-me,}
4r	.
{4dd	{Lui,
=28	=28
4.cc	fils
8cc	du
4.cc	Tout-
8cc	-puis-
=29	=29
2bn}	-sant,}
2r	.
=30	=30
{4b-	{Il
8b-	s'est
8b-	of-
4.b-	-fert
8b-	sain-
=31	=31
8b-	-te
8a-	vie-
2ee-	-ti-
8e-}	-me,}
8r	.
=32	=32
{4een	{Et
8g	t'a
8an	don-
4.b-	-ne/
8g	son
=33	=33
2dd}	sang!}
2r	.
=34	=34
*k[f#]	*
{4dd	{Quel
8dd	au-
8dd	-tre
4.ee	coeur
8b	d'un
=35	=35
8dd	tel
8cc	ca-
4cc	-li-
8cc}	-ce}
8r	.
{4cc	{Eut
=36	=36
4.ff#	e/-
8ee	-pui-
4.dd	-se/
8cc	le
=37	=37
4b}	fiel?..}
4r	.
{2cc#	{Il
=38	=38
4dd	eut
4dd	le
4.dd	prix
8dd	de
=39	=39
4dd	son
4dd#	sup-
4ee	-plice
4ee#	En
=40	=40
[4ff#	nous
8ff#]	|
8ff#	ou-
4.gg	-vrant
8cc#	le
=41	=41
2dd}	ciel!..}
4r	.
{4dd	{Il
=42	=42
4dd	ai-
4f#}	-me!..}
4r	.
{[4ee	{Son
=43	=43
8ee]	|
8dd	a-
8cc	-mour
8b	de/-
4b	-bor-
8a}	-de!..}
8r	.
=44	=44
{4b	{Oh!
8b	le
8b	ce/-
4.ff#	-leste
8ee	ap-
=45	=45
2dd}	-pui!}
4r	.
{4dd	{Croy-
=46	=46
[2gg	-ons
8gg]	|
8dd	en
8cc	sa
8b	mi-
=47	=47
8b	se/-
8a	-ri-
8a	-cor-
8a}	-de,}
4r	.
{4gg	{Croy-
=49	=49
[2gg	-ons
8gg]	|
8ffn	en
8dd	sa
8b	mi-
=50	=50
8dd	-se/-
8cc	-ri-
8cc	cor-
8cc}	-de!..}
4r	.
{4cc	{Ai-
=51	=51
4.b	-mons
8b	vi-
4.a	-vons
8a	en
=52	=52
2dd}	lui!..}
4r	.
{4ee	{Ai-
=53	=53
4.g	-mons,
8g	vi-
4b	-vons
4a	en
=54	=54
2g}	lui!..}
2r	.
=55	=55
{4.cc	{Oh!
8cc	le
4.ee	doux
8dd	ap-
=56	=56
2dd}	-pui!..}
2r	.
=57	=57
{4.g	{Oh!
8g	le
4.cc	doux
8b	ap-
=58	=58
2b}	-pui!}
4r	.
{4b	{Ai-
=59	=59
2dd	-mons
2g	vi-
=60	=60
2b	-vons
2a	en
=61	=61
[2g	lui!..
4g]}	|}
4r	.
==	==
*-	*-
